images/maple-finance.svg

<svg height="250" viewBox="0 0 250 250" width="250" xmlns="http://www.w3.org/2000/svg"><g fill="#ff8802" fill-rule="evenodd"><path d="m243.222656 103.917969c-2.414062 3.8125-8.1875 11.703125-23.121094 21.253906-3.574218 2.308594-7.496093 4.308594-11.636718 6.160156-3.171875 1.578125-4.078125 5.464844-4.269532 8.351563v3.195312.15625 30.878906c22.683594-9.355468 38.714844-22.871093 43.953126-38.347656 1.191406-3.582031 1.851562-7.238281 1.851562-10.972656-.03125-7.199219-2.445312-14.207031-6.777344-20.675781zm0 0"/><path d="m178.097656 138.988281c-12.234375 2.925781-25.597656 4.851563-39.652344 5.582031v12.667969c0 7.199219-3.890624 13.015625-8.722656 13.015625-4.800781 0-8.71875-5.816406-8.71875-13.015625v-12.359375c-51.765625-.921875-95.339844-17.824218-111.652344-41.15625-4.015624 6.042969-6.214843 12.550782-6.214843 19.289063 0 3.65625.691406 7.238281 1.914062 10.742187 10.164063 28.875 60.484375 50.78125 121.097657 50.78125 21.363281 0 41.441406-2.730468 58.945312-7.507812v-27.71875c-.125-9.855469-5.929688-10.320313-6.996094-10.320313zm0 0"/><path d="m123.195312 0c-68.042968 0-123.195312 28.027344-123.195312 62.640625 0 3.734375.691406 7.394531 1.914062 10.9375 9.914063 28.644531 58.132813 50.589844 116.828126 51.628906v-1.078125c0-12.589844-.5625-29.683594-6.714844-37.421875-3.953125-5.007812-19.074219-12.015625-26.195313-16.867187-2.414062-1.382813-4.578125-2.886719-6.367187-4.464844-.722656-.617188-1.316406-1.191406-1.789063-1.769531-3.074219-3.3125-4.800781-6.96875-4.800781-10.820313 0-14.589844 24.472656-26.410156 54.621094-26.410156 30.148437 0 54.617187 11.820312 54.617187 26.410156 0 7.277344-6.085937 13.859375-15.9375 18.636719-3.984375 2.730469-20.734375 7.890625-25.285156 18.09375-3.859375 8.703125-4.078125 22.445313-4.078125 35.382813 54.492188-3.042969 98.257812-24.179688 107.667969-51.320313 1.222656-3.542969 1.914062-7.203125 1.914062-10.9375.03125-34.613281-55.152343-62.640625-123.199219-62.640625zm0 0"/><path d="m199.554688 192.890625v21.214844c0 5.851562-3.855469 10.585937-8.65625 10.585937-4.769532 0-8.660157-4.734375-8.660157-10.585937v-15.441407c-17.535156 4.8125-37.644531 7.546876-59.042969 7.546876-53.234374 0-98.570312-16.941407-115.792968-40.695313-4.796875 6.621094-7.402344 13.746094-7.402344 21.175781 0 34.152344 55.152344 61.871094 123.195312 61.871094 68.046876 0 123.199219-27.683594 123.199219-61.871094 0-7.429687-2.636719-14.554687-7.402343-21.175781-7.875 10.859375-21.679688 20.289063-39.4375 27.375zm0 0"/></g></svg>

<svg xmlns="http://www.w3.org/2000/svg" xmlns:xlink="http://www.w3.org/1999/xlink" width="250px" height="250px" viewBox="0 0 250 250" version="1.1">
<g id="surface1">
<path style=" stroke:none;fill-rule:evenodd;fill:rgb(100%,53.333336%,0.784314%);fill-opacity:1;" d="M 243.222656 103.917969 C 240.808594 107.730469 235.035156 115.621094 220.101562 125.171875 C 216.527344 127.480469 212.605469 129.480469 208.464844 131.332031 C 205.292969 132.910156 204.386719 136.796875 204.195312 139.683594 L 204.195312 142.878906 C 204.195312 142.996094 204.195312 143.035156 204.195312 143.035156 L 204.195312 173.914062 C 226.878906 164.558594 242.910156 151.042969 248.148438 135.566406 C 249.339844 131.984375 250 128.328125 250 124.59375 C 249.96875 117.394531 247.554688 110.386719 243.222656 103.917969 Z M 243.222656 103.917969 "/>
<path style=" stroke:none;fill-rule:evenodd;fill:rgb(100%,53.333336%,0.784314%);fill-opacity:1;" d="M 178.097656 138.988281 C 165.863281 141.914062 152.5 143.839844 138.445312 144.570312 L 138.445312 157.238281 C 138.445312 164.4375 134.554688 170.253906 129.722656 170.253906 C 124.921875 170.253906 121.003906 164.4375 121.003906 157.238281 L 121.003906 144.878906 C 69.238281 143.957031 25.664062 127.054688 9.351562 103.722656 C 5.335938 109.765625 3.136719 116.273438 3.136719 123.011719 C 3.136719 126.667969 3.828125 130.25 5.050781 133.753906 C 15.214844 162.628906 65.535156 184.535156 126.148438 184.535156 C 147.511719 184.535156 167.589844 181.804688 185.09375 177.027344 L 185.09375 149.308594 C 184.96875 139.453125 179.164062 138.988281 178.097656 138.988281 Z M 178.097656 138.988281 "/>
<path style=" stroke:none;fill-rule:evenodd;fill:rgb(100%,53.333336%,0.784314%);fill-opacity:1;" d="M 123.195312 0 C 55.152344 0 0 28.027344 0 62.640625 C 0 66.375 0.691406 70.035156 1.914062 73.578125 C 11.828125 102.222656 60.046875 124.167969 118.742188 125.207031 L 118.742188 124.128906 C 118.742188 111.539062 118.179688 94.445312 112.027344 86.707031 C 108.074219 81.699219 92.953125 74.691406 85.832031 69.839844 C 83.417969 68.457031 81.253906 66.953125 79.464844 65.375 C 78.742188 64.757812 78.148438 64.183594 77.675781 63.605469 C 74.601562 60.292969 72.875 56.636719 72.875 52.785156 C 72.875 38.195312 97.347656 26.375 127.496094 26.375 C 157.644531 26.375 182.113281 38.195312 182.113281 52.785156 C 182.113281 60.0625 176.027344 66.644531 166.175781 71.421875 C 162.191406 74.152344 145.441406 79.3125 140.890625 89.515625 C 137.03125 98.21875 136.8125 111.960938 136.8125 124.898438 C 191.304688 121.855469 235.070312 100.71875 244.480469 73.578125 C 245.703125 70.035156 246.394531 66.375 246.394531 62.640625 C 246.425781 28.027344 191.242188 0 123.195312 0 Z M 123.195312 0 "/>
<path style=" stroke:none;fill-rule:evenodd;fill:rgb(100%,53.333336%,0.784314%);fill-opacity:1;" d="M 199.554688 192.890625 L 199.554688 214.105469 C 199.554688 219.957031 195.699219 224.691406 190.898438 224.691406 C 186.128906 224.691406 182.238281 219.957031 182.238281 214.105469 L 182.238281 198.664062 C 164.703125 203.476562 144.59375 206.210938 123.195312 206.210938 C 69.960938 206.210938 24.625 189.269531 7.402344 165.515625 C 2.605469 172.136719 0 179.261719 0 186.691406 C 0 220.84375 55.152344 248.5625 123.195312 248.5625 C 191.242188 248.5625 246.394531 220.878906 246.394531 186.691406 C 246.394531 179.261719 243.757812 172.136719 238.992188 165.515625 C 231.117188 176.375 217.3125 185.804688 199.554688 192.890625 Z M 199.554688 192.890625 "/>
</g>
</svg>
